assets/Sushi/Flat/sushi_flat.svg

<svg width="32" height="32" viewBox="0 0 32 32" fill="none" xmlns="http://www.w3.org/2000/svg">
<path d="M10.3299 19.18H25.6499C27.1799 19.18 28.4099 17.95 28.4099 16.42V13.02H7.56995V16.42C7.56995 17.94 8.79995 19.18 10.3299 19.18Z" fill="#F4F4F4"/>
<path d="M6.32006 29.97H21.6401C23.1701 29.97 24.4001 28.73 24.4001 27.21V23.89H3.56006V27.21C3.56006 28.73 4.79006 29.97 6.32006 29.97Z" fill="#F4F4F4"/>
<path d="M24.83 6H11.15C8.31001 6 6.01001 8.3 6.01001 11.14V11.5C6.01001 12.35 6.70001 13.04 7.55001 13.04H28.43C29.28 13.04 29.97 12.35 29.97 11.5V11.14C29.98 8.3 27.67 6 24.83 6Z" fill="#FF6723"/>
<path d="M12.38 9.6C11.98 9.6 11.66 9.28 11.66 8.88V6H13.1V8.88C13.1 9.28 12.78 9.6 12.38 9.6Z" fill="#FF822D"/>
<path d="M17.99 9.6C17.59 9.6 17.27 9.28 17.27 8.88V6H18.71V8.88C18.71 9.28 18.39 9.6 17.99 9.6Z" fill="#FF822D"/>
<path d="M22.89 8.88C22.89 9.28 23.21 9.6 23.61 9.6C24 9.6 24.32 9.28 24.33 8.88V6H22.89V8.88Z" fill="#FF822D"/>
<path d="M20.82 17H7.14C4.3 17 2 19.3 2 22.14V22.38C2 23.23 2.69 23.92 3.54 23.92H24.42C25.27 23.92 25.96 23.23 25.96 22.38V22.14C25.97 19.3 23.66 17 20.82 17Z" fill="#F8312F"/>
<g opacity="0.6">
<path d="M8.37002 20.6C7.97002 20.6 7.65002 20.28 7.65002 19.88V17H9.09002V19.88C9.09002 20.28 8.77002 20.6 8.37002 20.6Z" fill="#FF8687"/>
<path d="M13.98 20.6C13.58 20.6 13.26 20.28 13.26 19.88V17H14.7V19.88C14.7 20.28 14.38 20.6 13.98 20.6Z" fill="#FF8687"/>
<path d="M18.88 19.88C18.88 20.28 19.2 20.6 19.6 20.6C19.99 20.6 20.31 20.28 20.32 19.88V17H18.88V19.88Z" fill="#FF8687"/>
</g>
</svg>

<svg xmlns="http://www.w3.org/2000/svg" width="32" height="32" fill="none"><path fill="#F4F4F4" d="M10.33 19.18h15.32c1.53 0 2.76-1.23 2.76-2.76v-3.4H7.57v3.4a2.76 2.76 0 0 0 2.76 2.76ZM6.32 29.97h15.32a2.76 2.76 0 0 0 2.76-2.76v-3.32H3.56v3.32a2.76 2.76 0 0 0 2.76 2.76Z"/><path fill="#FF6723" d="M24.83 6H11.15c-2.84 0-5.14 2.3-5.14 5.14v.36c0 .85.69 1.54 1.54 1.54h20.88c.85 0 1.54-.69 1.54-1.54v-.36C29.98 8.3 27.67 6 24.83 6Z"/><path fill="#FF822D" d="M12.38 9.6c-.4 0-.72-.32-.72-.72V6h1.44v2.88c0 .4-.32.72-.72.72ZM17.99 9.6c-.4 0-.72-.32-.72-.72V6h1.44v2.88c0 .4-.32.72-.72.72ZM22.89 8.88c0 .4.32.72.72.72.39 0 .71-.32.72-.72V6h-1.44v2.88Z"/><path fill="#F8312F" d="M20.82 17H7.14C4.3 17 2 19.3 2 22.14v.24c0 .85.69 1.54 1.54 1.54h20.88c.85 0 1.54-.69 1.54-1.54v-.24c.01-2.84-2.3-5.14-5.14-5.14Z"/><g fill="#FF8687" opacity=".6"><path d="M8.37 20.6c-.4 0-.72-.32-.72-.72V17h1.44v2.88c0 .4-.32.72-.72.72ZM13.98 20.6c-.4 0-.72-.32-.72-.72V17h1.44v2.88c0 .4-.32.72-.72.72ZM18.88 19.88c0 .4.32.72.72.72.39 0 .71-.32.72-.72V17h-1.44v2.88Z"/></g></svg>
